X: 043
T: Sally Kelly
R: reel
M: C|
L: 1/8
Z: 2010 John Chambers <jc:trillian.mit.edu>
B: Abraham Mackintosh "A Collection of Strathspeys, Reels, Jigs &c.", Newcastle, after 1797, p.4
F: http://imslp.info/files/imglnks/usimg/a/a8/IMSLP80796-PMLP164326-Abraham_Mackintosh_coll.pdf
K: Dm
V: 1
   E | Dd-d^c d2df | {f}e>dcd e>fga | f>de^c d2AF | GBTA>G FDD :|
|: E | F>GAc F/F/F A2 | F>GAc BGGg  | f>de^c d2AF | GBTA>G FDD :|
V: 2 clef=bass middle=d
   z | d2ag f2d2 | c2c2 c2c2 |  d2ag f2d2 | BGA2 d2D :|
|: z | f2f2 f2f2 | f2f2 g2g2 | d'2ag f2d2 | BGA2 d2D :|

%%sep 2 1 500

